static/assets/images/exchanges/beets.svg

<svg width="256" height="256" viewBox="0 0 256 256" fill="none" xmlns="http://www.w3.org/2000/svg">
<path fill-rule="evenodd" clip-rule="evenodd" d="M112.006 200.651V200.633C112.006 182.966 97.6843 168.642 80.015 168.642H79.9974C62.3298 168.642 48.0062 182.966 48.0062 200.633V200.651C48.0062 218.319 62.3298 232.642 79.9974 232.642H80.015C97.6843 232.642 112.006 218.319 112.006 200.651ZM90.0061 200.633V200.651C90.0061 203.301 88.9532 205.843 87.0792 207.717C85.2052 209.591 82.6635 210.644 80.0132 210.644H79.9956C77.3453 210.644 74.8036 209.591 72.9296 207.717C71.0556 205.843 70.0028 203.301 70.0028 200.651V200.633C70.0028 197.983 71.0556 195.441 72.9296 193.567C74.8036 191.693 77.3453 190.641 79.9956 190.641H80.0132C82.6635 190.641 85.2052 191.693 87.0792 193.567C88.9532 195.441 90.0061 197.983 90.0061 200.633Z" fill="#FF0000"/>
<path fill-rule="evenodd" clip-rule="evenodd" d="M207.992 200.651V200.633C207.992 182.966 193.67 168.642 176.001 168.642H175.983C158.316 168.642 143.992 182.966 143.992 200.633V200.651C143.992 218.319 158.316 232.642 175.983 232.642H176.001C193.67 232.642 207.992 218.319 207.992 200.651ZM185.999 200.633V200.651C185.999 203.301 184.946 205.843 183.072 207.717C181.198 209.591 178.656 210.644 176.006 210.644H175.989C173.338 210.644 170.797 209.591 168.923 207.717C167.048 205.843 165.996 203.301 165.996 200.651V200.633C165.996 197.983 167.048 195.441 168.923 193.567C170.797 191.693 173.338 190.641 175.989 190.641H176.006C178.656 190.641 181.198 191.693 183.072 193.567C184.946 195.441 185.999 197.983 185.999 200.633Z" fill="#05D690"/>
<path fill-rule="evenodd" clip-rule="evenodd" d="M128 0C57.3087 0 0 57.3087 0 128V256H256V128C256 57.3087 198.691 0 128 0ZM112.006 200.651V200.633C112.006 182.966 97.6843 168.642 80.015 168.642H79.9974C62.3298 168.642 48.0062 182.966 48.0062 200.633V200.651C48.0062 218.319 62.3298 232.642 79.9974 232.642H80.015C97.6843 232.642 112.006 218.319 112.006 200.651ZM207.992 200.633V200.651C207.992 218.319 193.67 232.642 176.001 232.642H175.983C158.316 232.642 143.992 218.319 143.992 200.651V200.633C143.992 182.966 158.316 168.642 175.983 168.642H176.001C193.67 168.642 207.992 182.966 207.992 200.633Z" fill="white"/>
<path d="M185.999 200.651V200.633C185.999 197.983 184.946 195.441 183.072 193.567C181.198 191.693 178.656 190.641 176.006 190.641H175.989C173.338 190.641 170.797 191.693 168.923 193.567C167.048 195.441 165.996 197.983 165.996 200.633V200.651C165.996 203.301 167.048 205.843 168.923 207.717C170.797 209.591 173.338 210.644 175.989 210.644H176.006C178.656 210.644 181.198 209.591 183.072 207.717C184.946 205.843 185.999 203.301 185.999 200.651Z" fill="black"/>
<path d="M90.0061 200.651V200.633C90.0061 197.983 88.9532 195.441 87.0792 193.567C85.2052 191.693 82.6635 190.641 80.0132 190.641H79.9956C77.3453 190.641 74.8036 191.693 72.9296 193.567C71.0556 195.441 70.0028 197.983 70.0028 200.633V200.651C70.0028 203.301 71.0556 205.843 72.9296 207.717C74.8036 209.591 77.3453 210.644 79.9956 210.644H80.0132C82.6635 210.644 85.2052 209.591 87.0792 207.717C88.9532 205.843 90.0061 203.301 90.0061 200.651Z" fill="black"/>
</svg>

<svg xmlns="http://www.w3.org/2000/svg" fill="none" viewBox="0 0 256 256"><path fill="red" fill-rule="evenodd" d="M112.006 200.651v-.018c0-17.667-14.322-31.991-31.991-31.991h-.018c-17.667 0-31.99 14.324-31.99 31.991v.018c0 17.668 14.323 31.991 31.99 31.991h.018c17.67 0 31.991-14.323 31.991-31.991m-22-.018v.018a9.993 9.993 0 0 1-9.993 9.993h-.017a9.993 9.993 0 0 1-9.993-9.993v-.018a9.993 9.993 0 0 1 9.993-9.992h.017a9.99 9.99 0 0 1 9.993 9.992" clip-rule="evenodd"/><path fill="#05D690" fill-rule="evenodd" d="M207.992 200.651v-.018c0-17.667-14.322-31.991-31.991-31.991h-.018c-17.667 0-31.991 14.324-31.991 31.991v.018c0 17.668 14.324 31.991 31.991 31.991h.018c17.669 0 31.991-14.323 31.991-31.991m-21.993-.018v.018a9.994 9.994 0 0 1-9.993 9.993h-.017a9.99 9.99 0 0 1-9.993-9.993v-.018a9.99 9.99 0 0 1 9.993-9.992h.017a9.993 9.993 0 0 1 9.993 9.992" clip-rule="evenodd"/><path fill="#fff" fill-rule="evenodd" d="M128 0C57.309 0 0 57.309 0 128v128h256V128C256 57.309 198.691 0 128 0m-15.994 200.651v-.018c0-17.667-14.322-31.991-31.991-31.991h-.018c-17.667 0-31.99 14.324-31.99 31.991v.018c0 17.668 14.323 31.991 31.99 31.991h.018c17.67 0 31.991-14.323 31.991-31.991m95.986-.018v.018c0 17.668-14.322 31.991-31.991 31.991h-.018c-17.667 0-31.991-14.323-31.991-31.991v-.018c0-17.667 14.324-31.991 31.991-31.991h.018c17.669 0 31.991 14.324 31.991 31.991" clip-rule="evenodd"/><path fill="#000" d="M185.999 200.651v-.018a9.994 9.994 0 0 0-9.993-9.992h-.017a9.99 9.99 0 0 0-9.993 9.992v.018a9.99 9.99 0 0 0 9.993 9.993h.017a9.994 9.994 0 0 0 9.993-9.993m-95.993 0v-.018a9.993 9.993 0 0 0-9.993-9.992h-.017a9.99 9.99 0 0 0-9.993 9.992v.018a9.993 9.993 0 0 0 9.993 9.993h.017a9.993 9.993 0 0 0 9.993-9.993"/></svg>
